X:1
T:When the Bridegroom Cometh
T:When the Bridegroom Cometh
T:John Millard Harris
T:John Millard Harris, 1907
T:Public Domain Courtesy of the Cyber Hymnal™
T:Public Domain Courtesy of the Cyber Hymnal™
C:John Millard Harris
Z:Public Domain
Z:Courtesy of the Cyber Hymnal™
%%score ( 1 2 ) ( 3 4 )
L:1/8
Q:1/4=100
M:4/4
K:G
V:1 treble 
V:2 treble 
V:3 bass 
V:4 bass 
V:1
 [B,D][B,D] | [B,G]2 [B,G]2 [B,G][B,G][DG][DA] | [DB]2 [EG][CE] [EG]2 [EG][CE] | %3
w: 1.~When the|Bride- groom com- eth for His|own by and by, Will your|
w: 2.~When the|Bride- groom com- eth and His|voice you shall hear, Will your|
w: 3.~When the|Bride- groom com- eth then we|all must ap- pear, ’Round His|
 [B,D]2 [B,D]2 [B,D][B,G][DG][DA] | [DB]2 [^CA]2 [DA]2 [DB][D=c] | [Gd]2 [Gd]2 [Gd][DB][DB][DA] | %6
w: soul be rea- dy for that|home on high, Will your|lamp be burn- ing and your|
w: heart be joy- ful or be|filled with fear? Will you|glad- ly meet Him in the|
w: throne e- ter- nal and our|sen- tence hear; Will you|hear His wel- come to e-|
 [EG]2 [CE]2 [EG]2 [EG][CE] | [B,D]2 [B,D]2 [B,D][B,G][^CG][CA] | [DB]2 [CA]2 !fermata![B,G]2 || %9
w: robes be white, Will you|en- ter with Him thro’ the|gates of light?|
w: clouds so fair? Or will|sin and sor- row drive thee|to des- pair?|
w: ter- nal light, Or, “De-|part, ye curs- èd, in- to|end- less night”?|
"^Refrain" [DB][Dc] | [Gd]/ d4- [Gd]3/2G[GA] | [GB]2 [GB][DA] [DG]2 [DA][DB] | %12
w: Are you|rea- dy, for the great|judg- ment day? Are you rea-|
w: |||
w: |||
 [Fc]/ c4- [Dc]3/2[DB][DA] | [DB]2 [^CA]>[CB] [DA]2 [DB][D=c] | [Gd]2 [Gd]>[Ge] [Gd][GB] | %15
w: dy, with your sins washed|* a- way? Should He come|in the morn- ing, Or|
w: |||
w: |||
 [GB][DA][DA][DG] [DG]D [CE]<!fermata![EG][EG][_EA] | %16
w: at mid- night with- out warn- ing, Are you rea-|
w: |
w: |
 [DB]<[DB] [B,D][B,G] [DB]2 !fermata![DB][CA] | [B,G]6 |] %18
w: dy for the great judg- ment day?||
w: ||
w: ||
V:2
 x2 | x8 | x8 | x8 | x8 | x8 | x8 | x8 | x6 || x2 | x/ (G3/2 G G G/ G) x5/2 | x8 | %12
 x/ F3/2 F E D/ x7/2 | x8 | x6 | x5 D x4 | x8 | x6 |] %18
V:3
 [G,,G,][G,,G,] | [G,,D,]2 [G,,D,]2 [G,,D,][G,,D,][B,,G,][D,F,] | %2
w: ~ ~|~ ~ ~ ~ ~ ~|
 G,2 [C,C][C,G,] [C,C]2 [C,C][C,G,] | [G,,G,]2 [G,,G,]2 [G,,G,][G,,G,][B,,G,][D,F,] | %4
w: ~ ~ ~ ~ ~ ~|~ ~ ~ ~ ~ ~|
 G,2 [E,G,]2 [D,F,]2 G,[G,A,] | [G,B,]2 [G,B,]2 [G,B,]G,G,[B,,G,] | %6
w: ~ ~ ~ ~ ~|~ ~ ~ ~ ~ ~|
 [C,C]2 [C,G,]2 [C,C]2 [C,C][C,G,] | [D,G,]2 [D,G,]2 [D,G,][D,G,][E,G,][E,G,] | %8
w: ~ ~ ~ ~ ~|~ ~ ~ ~ ~ ~|
 [D,G,]2 [D,F,]2 !fermata![G,,G,]2 || G,[G,A,] | %10
w: ~ ~ ~|~ ~~|
 [G,B,]<[G,B,] [G,B,][G,B,] [G,B,]<[G,B,] [E,^C][E,C] | [D,D]2 [D,D][D,C] [G,,B,]2 [D,F,][D,G,] | %12
w: ~ ~ are you rea- dy? ~ ~|~ ~ ~ ~ ~ ~|
 [D,A,]<[D,A,] [D,A,][D,A,] [D,A,]<[D,A,] [D,G,][D,F,] | G,2 [E,G,]>[A,,G,] [D,F,]2 G,[G,A,] | %14
w: ~ ~ are you rea- dy? * *||
 [G,B,]2 [G,B,]>[G,C] [G,B,][G,D] | %15
w: |
 [G,D][G,C][G,C][G,B,] [G,B,][B,,G,] [B,,G,]<!fermata![C,C][C,C][C,G,] | %16
w: |
 [D,G,]<[D,G,] [D,G,][D,G,] [D,G,]2 !fermata![D,G,]D, | [G,,D,]6 |] %18
w: ||
V:4
 x2 | x8 | G,2 x6 | x8 | G,2 x2 G, x3 | x5 G,G, x | x8 | x8 | x6 || G, x | x8 | x8 | x8 | %13
 G,2 x2 G, x3 | x6 | x10 | x7 D, | x6 |] %18

